X: 31
M: C|
L: 1/8
K: A
c3d (3efe (3dcB | Aaga fedc |\
fdcd ecac | BcdB AGFE |
c3d (3efe (3dcB | Aaga fedc |\
defd BdBG | A2 (3Ace a2 :|
|: A2 |\
e3g bgec | defg aedc |\
fefg aedc | BcdB AGFE |
c3d (3efe (3dcB | Aaga fedc |\
fdBd EdBG | A2 (3CEA A2 H:|

